X:1
T:How Shall We Escape?
T:James McGranahan, 1887
T:How Shall We Escape?
T:Public Domain
T:Public Domain
T:Public Domain
C:James McGranahan, 1887
Z:Public Domain
%%score ( 1 2 ) ( 3 4 )
L:1/8
M:6/8
K:Eb
V:1 treble 
V:2 treble 
V:3 bass 
V:4 bass 
V:1
 E | [EG]2 [EG] [EA]2 [EA] | [EG]3 [B,E]2 [EG] | [GB]2 [GB] [^Fc]2 [Fc] | [GB]3- [GB]2 [EB] | %5
w: 1.~God|a world of sin-|ners, For them|He gave His Son;|And * who-|
w: 2.~Be-|the bleed- ing Sav-|ior Up- on|the cru- el tree—|The * Just,|
w: 3.~God|the vil- est sin-|ner, But hates|the small- est sin;|Then * who|
w: 4.~Re-|to God, O wan-|d’rer, Thy pur-|chased par- don take;|Thy * sins|
 [Ec]2 [EB] [DA]2 [EG] | [EG]3 [DF]2 [FB] | [FB]2 [F=A] [EG]2 [EA] | [DB]3- [DB]2 [FA] | %9
w: so- e’er re- ceives|Him, He saves|them, ev- ery one.|He * came|
w: con- demned, for- sak-|en— He dies|for you and me;|The * Son|
w: shall see His king-|dom? Or who|can en- ter in?|The * pre-|
w: He’ll not re- mem-|ber, For thy|Re- deem- er’s sake;|He’ll * cast|
 [EG]2 [EG] [EA]2 [EA] | [EG]3 [B,E]2 [EG] | [GB]2 [GB] [^Fc]2 [Fc] | [GB]3- [GB]2 [GB] | %13
w: to bring sal- va-|tion, To bear|our sins a- way,|That * we|
w: of God, be- lov-|èd, For us|a curse was made;|That * we|
w: cious blood of Je-|sus— Let ev-|ery crea- ture know—|Can * make|
w: them all be- hind|Him, Or ’neath|the deep- est sea,|And * love|
 [Fd]2 [Fd] [Fc]2 [Fd] | [Ee]3 [Ge]2 [Ae] | [Ge]2 [EG] [DG]2 [DF] | E3- E2 z || %17
w: with Him in glo-|ry Might live|thro’ end- less day.||
w: might have re- demp-|tion, The aw-|ful price He paid.|How *|
w: the “chief of sin-|ners” Full whit-|er than the snow.||
w: us ev- er free-|ly, Through- out|e- ter- ni- ty.||
"^Refrain" [Ec]3 [Ec][EB][E=A] | [EB]3 [GB][FA][EG] | [DA]2 [DG] [DA]2 [DF] | %20
w: |||
w: we es- cape if|we ne- glect so|great sal- va- tion?|
w: |||
w: |||
 [EG]3 [EB]3 C2 D E2 F | G3 GGG | A2 G F2 E | [Ac]3 [Ac]2 [Ac] |!>(! [Ad]3 [Ad]3!>)! | %25
w: |||||
w: How shall we es- cape if|great sal- va- tion,|sal- va- tion? *|||
w: |||||
w: |||||
 [Ge]3- [Ge]2 [EG] | (E3 D3) | E3- E2 z |] %28
w: |||
w: |||
w: |||
w: |||
V:2
 E | x6 | x6 | x6 | x6 | x6 | x6 | x6 | x6 | x6 | x6 | x6 | x6 | x6 | x6 | x6 | E3- E2 x || x6 | %18
w: loved||||||||||||||||||
w: hold||||||||||||||||shall *||
w: loves||||||||||||||||||
w: turn||||||||||||||||||
 x6 | x6 | x6 C2 D E2 F | G3 GGG | A2 G F2 E | x6 | x6 | x6 | F6 | E3- E2 x |] %28
w: ||||||||||
w: ||we ne- glect so|Ne- glect so great|||||||
w: ||||||||||
w: ||||||||||
V:3
 [E,G,] | [E,B,]2 [E,B,] [E,C]2 [E,C] | [E,B,]3 [E,G,]2 [E,B,] | [E,B,]2 [E,B,] [E,=A,]2 [E,A,] | %4
 [E,B,]3- [E,B,]2 [G,E] | [A,E]2 [G,E] [F,B,]2 [E,B,] | [B,,B,]3 [B,,B,]2 [D,B,] | %7
 [F,D]2 [F,C] [F,B,]2 F, | [B,,F,]3- [B,,F,]2 [B,,B,] | [E,B,]2 [E,B,] [E,C]2 [E,C] | %10
 [E,B,]3 [E,G,]2 [E,B,] | [E,B,]2 [E,B,] [E,=A,]2 [E,A,] | [E,B,]3- [E,B,]2 [E,B,] | %13
 [B,,B,]2 [B,,B,] [A,B,]2 [A,B,] | [G,B,]3 [E,B,]2 [A,,C] | [B,,B,]2 [B,,B,] [B,,B,]2 [B,,A,] | %16
 [E,G,]3- [E,G,]2 z || A,3 A,[G,B,][^F,C] | [G,B,]3 [E,B,][E,B,][E,B,] | %19
 [F,B,]2 [=E,B,] [F,B,]2 [B,,B,] | [E,B,]3 [E,G,]3 C,2 D, E,2 F, | G,3 G,G,G, | A,2 G, F,2 E, | %23
 [A,E]3 [A,E]2 [A,E] |!>(! [F,B,]3 [F,B,]3!>)! | [E,B,]3- [E,B,]2 [E,B,] | [B,,A,]6 | %27
 [E,G,]3- [E,G,]2 z |] %28
V:4
 x | x6 | x6 | x6 | x6 | x6 | x6 | x5 F, | x6 | x6 | x6 | x6 | x6 | x6 | x6 | x6 | x6 || %17
 A,3 A, x2 | x6 | x6 | x6 C,2 D, E,2 F, | G,3 G,G,G, | A,2 G, F,2 E, | x6 | x6 | x6 | x6 | x6 |] %28

